images/viber.svg

<svg width="25" height="25" viewBox="0 0 25 25" fill="none" xmlns="http://www.w3.org/2000/svg">
<rect width="25" height="25" rx="12.5" transform="matrix(-1 0 0 1 25 0)" fill="#A226DC"/>
<g clip-path="url(#clip0)">
<path fill-rule="evenodd" clip-rule="evenodd" d="M12.6253 8.03569C13.1426 8.09459 13.6457 8.24313 14.1121 8.47464C14.5932 8.70937 14.9016 8.93148 15.3084 9.33516C15.6905 9.71674 15.9021 10.0057 16.1268 10.4541C16.4395 11.0804 16.6174 11.8241 16.6479 12.6431C16.6595 12.922 16.6511 12.9846 16.5868 13.0641C16.4653 13.2194 16.1974 13.1936 16.1058 13.0199C16.0768 12.962 16.0689 12.9131 16.0595 12.6894C16.0501 12.4109 16.0205 12.1335 15.9711 11.8594C15.7816 10.8199 15.2816 9.9899 14.4826 9.39411C13.8168 8.89621 13.1289 8.65358 12.2274 8.60095C11.9221 8.58358 11.8695 8.572 11.8011 8.51937C11.6721 8.41937 11.6658 8.18253 11.7895 8.07253C11.8647 8.00411 11.9179 7.99411 12.1789 8.00253C12.3158 8.00727 12.5158 8.02306 12.6253 8.03569ZM8.95789 8.20832C9.01421 8.22727 9.10052 8.272 9.15053 8.30411C9.45526 8.50516 10.3032 9.58569 10.5811 10.1252C10.74 10.4336 10.7926 10.662 10.7432 10.831C10.6916 11.0131 10.6063 11.1088 10.2268 11.4136C10.0742 11.5367 9.93158 11.6631 9.90895 11.6962C9.85105 11.7794 9.80474 11.942 9.80474 12.0573C9.80631 12.3236 9.97947 12.8073 10.2074 13.1794C10.3837 13.4683 10.7 13.8388 11.0126 14.1231C11.38 14.4583 11.7037 14.6862 12.0695 14.8667C12.5395 15.0999 12.8268 15.1588 13.0368 15.0615C13.0895 15.0378 13.1458 15.0057 13.1632 14.9915C13.1795 14.9767 13.3032 14.8267 13.4379 14.661C13.6979 14.3352 13.7568 14.2825 13.9353 14.222C14.1616 14.1452 14.3921 14.1662 14.6247 14.2841C14.903 14.4376 15.1735 14.6049 15.4353 14.7852C15.7616 15.0136 16.4616 15.582 16.5563 15.6957C16.7226 15.8999 16.7516 16.1615 16.6395 16.4504C16.5205 16.7557 16.0589 17.3267 15.7363 17.5715C15.4442 17.7915 15.2374 17.8762 14.9647 17.8888C14.7405 17.8999 14.6474 17.881 14.36 17.7625C12.1079 16.8383 10.31 15.4588 8.88263 13.5641C8.13684 12.5746 7.56947 11.5483 7.18105 10.4831C6.95474 9.862 6.94421 9.59253 7.13 9.27464C7.21 9.14043 7.55158 8.80832 7.80053 8.62306C8.21421 8.31674 8.40526 8.20358 8.55737 8.17148C8.66158 8.14937 8.84263 8.16621 8.95842 8.20832H8.95789ZM12.7353 9.19306C13.7089 9.33516 14.4626 9.78569 14.9568 10.5167C15.2342 10.9283 15.4074 11.412 15.4674 11.931C15.4879 12.121 15.4879 12.4678 15.4653 12.5246C15.4337 12.5907 15.3828 12.6458 15.3195 12.6825C15.2563 12.7146 15.1237 12.7115 15.05 12.6731C14.9263 12.611 14.8895 12.512 14.8895 12.2441C14.8895 11.8304 14.7821 11.3946 14.5958 11.0562C14.3864 10.6723 14.0773 10.3519 13.7011 10.1288C13.3784 9.93727 12.9021 9.79516 12.4674 9.7599C12.31 9.74727 12.2237 9.71516 12.1642 9.64674C12.1198 9.59826 12.0931 9.53609 12.0887 9.47046C12.0843 9.40484 12.1024 9.33967 12.14 9.28569C12.2237 9.15621 12.3521 9.13569 12.7353 9.19306ZM13.0774 10.3983C13.3932 10.4657 13.6353 10.5852 13.8421 10.7783C14.1084 11.0288 14.2542 11.3325 14.3184 11.7678C14.3616 12.052 14.3442 12.1641 14.2432 12.2567C14.1484 12.3431 13.9737 12.3462 13.8679 12.2646C13.7905 12.2067 13.7668 12.1467 13.7489 11.982C13.7279 11.7636 13.6895 11.6099 13.6237 11.4678C13.4826 11.1662 13.2342 11.0099 12.8137 10.9588C12.6168 10.9346 12.5574 10.9125 12.4926 10.8378C12.4653 10.8038 12.4458 10.7643 12.4355 10.722C12.4252 10.6797 12.4244 10.6356 12.433 10.5929C12.4416 10.5502 12.4596 10.5099 12.4855 10.4749C12.5115 10.4399 12.5448 10.4111 12.5832 10.3904C12.6437 10.3599 12.6695 10.3567 12.8042 10.3652C12.8879 10.3699 13.0111 10.3841 13.0768 10.3983H13.0774Z" fill="white"/>
</g>
<defs>
<clipPath id="clip0">
<rect width="10" height="10" fill="white" transform="translate(7 8)"/>
</clipPath>
</defs>
</svg>

<svg width="25" height="25" fill="none" xmlns="http://www.w3.org/2000/svg"><rect width="25" height="25" rx="12.5" transform="matrix(-1 0 0 1 25 0)" fill="#A226DC"/><g clip-path="url(#clip0)"><path fill-rule="evenodd" clip-rule="evenodd" d="M12.625 8.036c.518.059 1.02.207 1.487.439.481.234.79.456 1.196.86.383.382.594.67.819 1.12.313.625.49 1.37.52 2.188.013.279.004.342-.06.421-.122.155-.39.13-.481-.044-.03-.058-.037-.107-.047-.33a5.779 5.779 0 00-.088-.83c-.19-1.04-.69-1.87-1.488-2.466-.666-.498-1.354-.74-2.256-.793-.305-.017-.357-.029-.426-.082-.129-.1-.135-.336-.011-.446.075-.069.128-.079.389-.07.137.004.337.02.446.033zm-3.667.172c.056.02.143.064.193.096.304.201 1.152 1.282 1.43 1.821.159.309.212.537.162.706-.051.182-.137.278-.516.583a2.92 2.92 0 00-.318.282.741.741 0 00-.104.361c.001.267.174.75.402 1.122.177.29.493.66.806.944.367.335.69.563 1.056.744.47.233.758.292.968.194a.767.767 0 00.126-.07c.017-.014.14-.164.275-.33.26-.326.319-.378.497-.439a.862.862 0 01.69.062c.278.154.549.32.81.501.327.229 1.027.797 1.121.91.167.205.196.466.084.755-.12.306-.581.877-.904 1.122-.292.22-.499.304-.771.317-.224.01-.318-.008-.605-.127-2.252-.924-4.05-2.303-5.477-4.198a11.877 11.877 0 01-1.702-3.08c-.226-.622-.237-.891-.051-1.21.08-.134.422-.466.67-.65.414-.307.605-.42.757-.453a.87.87 0 01.401.037zm3.777.985c.974.142 1.728.593 2.222 1.324.277.411.45.895.51 1.414.02.19.02.537-.002.594a.364.364 0 01-.146.157.359.359 0 01-.269-.009c-.124-.062-.16-.161-.16-.429 0-.414-.108-.85-.294-1.188a2.433 2.433 0 00-.895-.927c-.323-.192-.799-.334-1.234-.37-.157-.012-.243-.044-.303-.112a.29.29 0 01-.024-.361c.084-.13.212-.15.595-.093zm.342 1.205c.316.068.558.187.765.38.266.25.412.554.476.99.044.284.026.396-.075.489a.31.31 0 01-.375.008c-.078-.058-.101-.118-.12-.283a1.516 1.516 0 00-.124-.514c-.141-.302-.39-.458-.81-.51-.197-.023-.257-.046-.321-.12a.297.297 0 01.09-.448c.06-.03.086-.033.221-.025.084.005.207.02.273.033z" fill="#fff"/></g><defs><clipPath id="clip0"><path fill="#fff" transform="translate(7 8)" d="M0 0h10v10H0z"/></clipPath></defs></svg>
